sourcecode/npm/components/src/components/License/icons/by-sa.svg

<?xml version="1.0" encoding="UTF-8" standalone="no"?>
<!-- Created with Inkscape (http://www.inkscape.org/) -->
<svg
   xmlns:dc="http://purl.org/dc/elements/1.1/"
   xmlns:cc="http://web.resource.org/cc/"
   xmlns:rdf="http://www.w3.org/1999/02/22-rdf-syntax-ns#"
   xmlns:svg="http://www.w3.org/2000/svg"
   xmlns="http://www.w3.org/2000/svg"
   xmlns:sodipodi="http://sodipodi.sourceforge.net/DTD/sodipodi-0.dtd"
   xmlns:inkscape="http://www.inkscape.org/namespaces/inkscape"
   width="120"
   height="42"
   id="svg2759"
   sodipodi:version="0.32"
   inkscape:version="0.45+devel"
   version="1.0"
   sodipodi:docname="by-sa.svg"
   inkscape:output_extension="org.inkscape.output.svg.inkscape">
  <defs
     id="defs2761" />
  <sodipodi:namedview
     id="base"
     pagecolor="#ffffff"
     bordercolor="#8b8b8b"
     borderopacity="1"
     gridtolerance="10000"
     guidetolerance="10"
     objecttolerance="10"
     inkscape:pageopacity="0.0"
     inkscape:pageshadow="2"
     inkscape:zoom="1"
     inkscape:cx="179"
     inkscape:cy="89.569904"
     inkscape:document-units="px"
     inkscape:current-layer="layer1"
     width="120px"
     height="42px"
     inkscape:showpageshadow="false"
     inkscape:window-width="1198"
     inkscape:window-height="624"
     inkscape:window-x="488"
     inkscape:window-y="401" />
  <metadata
     id="metadata2764">
    <rdf:RDF>
      <cc:Work
         rdf:about="">
        <dc:format>image/svg+xml</dc:format>
        <dc:type
           rdf:resource="http://purl.org/dc/dcmitype/StillImage" />
      </cc:Work>
    </rdf:RDF>
  </metadata>
  <g
     inkscape:label="Layer 1"
     inkscape:groupmode="layer"
     id="layer1">
    <g
       transform="matrix(0.9937807,0,0,0.9936694,-177.69409,-74.436409)"
       id="g287"
       inkscape:export-filename="/mnt/hgfs/Bov/Documents/Work/2007/cc/identity/srr buttons/big/by-sa.png"
       inkscape:export-xdpi="300.23013"
       inkscape:export-ydpi="300.23013">
	<path
   id="path3817_2_"
   nodetypes="ccccccc"
   d="M 182.23532,75.39014 L 296.29928,75.59326 C 297.89303,75.59326 299.31686,75.35644 299.31686,78.77344 L 299.17721,116.34033 L 179.3569,116.34033 L 179.3569,78.63379 C 179.3569,76.94922 179.51999,75.39014 182.23532,75.39014 z"
   style="fill:#aab2ab" />

	<g
   id="g5908_2_"
   transform="matrix(0.872921,0,0,0.872921,50.12536,143.2144)">
		
			<path
   id="path5906_2_"
   cx="296.35416"
   ry="22.939548"
   cy="264.3577"
   type="arc"
   rx="22.939548"
   d="M 187.20944,-55.6792 C 187.21502,-46.99896 180.18158,-39.95825 171.50134,-39.95212 C 162.82113,-39.94708 155.77929,-46.97998 155.77426,-55.66016 C 155.77426,-55.66687 155.77426,-55.67249 155.77426,-55.6792 C 155.76922,-64.36054 162.80209,-71.40125 171.48233,-71.40631 C 180.16367,-71.41193 187.20441,-64.37842 187.20944,-55.69824 C 187.20944,-55.69263 187.20944,-55.68591 187.20944,-55.6792 z"
   style="fill:#ffffff" />

		<g
   id="g5706_2_"
   transform="translate(-289.6157,99.0653)">
			<path
   id="path5708_2_"
   d="M 473.88455,-167.54724 C 477.36996,-164.06128 479.11294,-159.79333 479.11294,-154.74451 C 479.11294,-149.69513 477.40014,-145.47303 473.9746,-142.07715 C 470.33929,-138.50055 466.04281,-136.71283 461.08513,-136.71283 C 456.18736,-136.71283 451.96526,-138.48544 448.42003,-142.03238 C 444.87419,-145.57819 443.10158,-149.81537 443.10158,-154.74451 C 443.10158,-159.6731 444.87419,-163.94049 448.42003,-167.54724 C 451.87523,-171.03375 456.09728,-172.77618 461.08513,-172.77618 C 466.13342,-172.77618 470.39914,-171.03375 473.88455,-167.54724 z M 450.76657,-165.20239 C 447.81982,-162.22601 446.34701,-158.7395 446.34701,-154.74005 C 446.34701,-150.7417 447.80529,-147.28485 450.72125,-144.36938 C 453.63778,-141.45288 457.10974,-139.99462 461.1383,-139.99462 C 465.16683,-139.99462 468.66848,-141.46743 471.64486,-144.41363 C 474.47076,-147.14947 475.88427,-150.59069 475.88427,-154.74005 C 475.88427,-158.85809 474.44781,-162.35297 471.57659,-165.22479 C 468.70595,-168.09546 465.22671,-169.53131 461.1383,-169.53131 C 457.04993,-169.53131 453.59192,-168.08813 450.76657,-165.20239 z M 458.52106,-156.49927 C 458.07074,-157.4809 457.39673,-157.9715 456.49781,-157.9715 C 454.90867,-157.9715 454.11439,-156.90198 454.11439,-154.763 C 454.11439,-152.62341 454.90867,-151.55389 456.49781,-151.55389 C 457.54719,-151.55389 458.29676,-152.07519 458.74647,-153.11901 L 460.94923,-151.94598 C 459.8993,-150.0805 458.32417,-149.14697 456.22374,-149.14697 C 454.60384,-149.14697 453.30611,-149.64367 452.33168,-150.63653 C 451.35561,-151.62994 450.86894,-152.99926 450.86894,-154.7445 C 450.86894,-156.46008 451.37123,-157.82159 452.37642,-158.83013 C 453.38161,-159.83806 454.63347,-160.34264 456.13423,-160.34264 C 458.35435,-160.34264 459.94407,-159.46776 460.90504,-157.71978 L 458.52106,-156.49927 z M 468.8844,-156.49927 C 468.43353,-157.4809 467.77292,-157.9715 466.90201,-157.9715 C 465.28095,-157.9715 464.46988,-156.90198 464.46988,-154.763 C 464.46988,-152.62341 465.28095,-151.55389 466.90201,-151.55389 C 467.95304,-151.55389 468.68918,-152.07519 469.10925,-153.11901 L 471.36126,-151.94598 C 470.31301,-150.0805 468.74007,-149.14697 466.64358,-149.14697 C 465.02587,-149.14697 463.73095,-149.64367 462.75711,-150.63653 C 461.78494,-151.62994 461.29773,-152.99926 461.29773,-154.7445 C 461.29773,-156.46008 461.79221,-157.82159 462.78061,-158.83013 C 463.76843,-159.83806 465.02588,-160.34264 466.55408,-160.34264 C 468.77027,-160.34264 470.35776,-159.46776 471.3154,-157.71978 L 468.8844,-156.49927 z" />

		</g>

	</g>

	<path
   d="M 297.29639,74.91064 L 181.06688,74.91064 C 179.8203,74.91064 178.80614,75.92529 178.80614,77.17187 L 178.80614,116.66748 C 178.80614,116.94922 179.03466,117.17822 179.31639,117.17822 L 299.04639,117.17822 C 299.32813,117.17822 299.55713,116.94922 299.55713,116.66748 L 299.55713,77.17188 C 299.55713,75.92529 298.54297,74.91064 297.29639,74.91064 z M 181.06688,75.93213 L 297.29639,75.93213 C 297.97998,75.93213 298.53565,76.48828 298.53565,77.17188 C 298.53565,77.17188 298.53565,93.09131 298.53565,104.59034 L 215.4619,104.59034 C 212.41698,110.09571 206.55077,113.83399 199.81835,113.83399 C 193.083,113.83399 187.21825,110.09913 184.1748,104.59034 L 179.82666,104.59034 C 179.82666,93.09132 179.82666,77.17188 179.82666,77.17188 C 179.82664,76.48828 180.38329,75.93213 181.06688,75.93213 z"
   id="path294" />

	<g
   enable-background="new    "
   id="g296">
		<path
   d="M 265.60986,112.8833 C 265.68994,113.03906 265.79736,113.16504 265.93115,113.26172 C 266.06494,113.35791 266.22119,113.42969 266.40088,113.47608 C 266.58154,113.52296 266.76807,113.54639 266.96045,113.54639 C 267.09033,113.54639 267.22998,113.53565 267.3794,113.51368 C 267.52784,113.4922 267.66749,113.44972 267.79835,113.3877 C 267.92823,113.32569 268.03761,113.23975 268.12355,113.13086 C 268.21144,113.02197 268.25441,112.88379 268.25441,112.71533 C 268.25441,112.53515 268.19679,112.38916 268.08156,112.27685 C 267.9673,112.16455 267.81594,112.07177 267.62941,111.99658 C 267.44386,111.92236 267.23195,111.85693 266.9966,111.80078 C 266.76027,111.74463 266.52101,111.68262 266.27883,111.61377 C 266.02981,111.55176 265.78762,111.47559 265.55129,111.38525 C 265.31594,111.29541 265.10402,111.17822 264.9175,111.03515 C 264.73098,110.89208 264.58059,110.71337 264.46535,110.49853 C 264.35109,110.28369 264.29347,110.02392 264.29347,109.71923 C 264.29347,109.37646 264.36671,109.07958 264.51222,108.82763 C 264.6587,108.57568 264.85011,108.36572 265.08644,108.19726 C 265.32179,108.02929 265.58937,107.90478 265.8882,107.82372 C 266.18605,107.74315 266.48488,107.70263 266.78273,107.70263 C 267.13136,107.70263 267.46535,107.74169 267.78566,107.81982 C 268.105,107.89746 268.39015,108.02392 268.6382,108.19824 C 268.88722,108.37256 269.08449,108.59521 269.23097,108.86621 C 269.37648,109.13721 269.44972,109.46582 269.44972,109.85156 L 268.02784,109.85156 C 268.01514,109.65234 267.97315,109.4873 267.90284,109.35693 C 267.83155,109.22607 267.73682,109.12353 267.61964,109.04834 C 267.50148,108.97412 267.36671,108.9209 267.21534,108.89014 C 267.063,108.85889 266.89796,108.84326 266.71827,108.84326 C 266.60108,108.84326 266.48292,108.85596 266.36573,108.88037 C 266.24757,108.90576 266.14112,108.94922 266.04542,109.01123 C 265.94874,109.07373 265.86964,109.15137 265.80812,109.24463 C 265.7466,109.33838 265.71535,109.45654 265.71535,109.59961 C 265.71535,109.73047 265.73976,109.83643 265.78957,109.91699 C 265.83937,109.99804 265.93801,110.07275 266.08352,110.14111 C 266.22903,110.20947 266.43118,110.27832 266.68899,110.34668 C 266.9468,110.41504 267.28372,110.50244 267.70071,110.60791 C 267.82473,110.63281 267.99661,110.67822 268.21731,110.74365 C 268.43801,110.80908 268.65676,110.91308 268.87454,111.05615 C 269.09231,111.1997 269.27981,111.39111 269.43899,111.63037 C 269.59719,111.87012 269.67629,112.17676 269.67629,112.55029 C 269.67629,112.85547 269.61672,113.13867 269.49856,113.3999 C 269.3804,113.66162 269.20461,113.8872 268.97122,114.07666 C 268.73782,114.26709 268.44876,114.41455 268.10403,114.52051 C 267.75833,114.62647 267.35794,114.6792 266.90481,114.6792 C 266.53762,114.6792 266.18118,114.63379 265.83547,114.54346 C 265.49074,114.45313 265.18508,114.31104 264.92043,114.11768 C 264.65676,113.92432 264.4468,113.67774 264.29055,113.37891 C 264.13528,113.07959 264.06106,112.7251 264.06692,112.31397 L 265.4888,112.31397 C 265.48877,112.53809 265.52881,112.72803 265.60986,112.8833 z"
   id="path298"
   style="fill:#ffffff" />

		<path
   d="M 273.8667,107.8667 L 276.35986,114.53076 L 274.8374,114.53076 L 274.33349,113.04638 L 271.84033,113.04638 L 271.31787,114.53076 L 269.84326,114.53076 L 272.36377,107.8667 L 273.8667,107.8667 z M 273.95068,111.95264 L 273.11084,109.50928 L 273.09229,109.50928 L 272.22315,111.95264 L 273.95068,111.95264 z"
   id="path300"
   style="fill:#ffffff" />

	</g>

	<g
   enable-background="new    "
   id="g302">
		<path
   d="M 239.17821,107.8667 C 239.49559,107.8667 239.78563,107.89502 240.04735,107.95068 C 240.30907,108.00683 240.53368,108.09863 240.72118,108.22607 C 240.9077,108.35351 241.05321,108.52295 241.15575,108.73437 C 241.25829,108.94579 241.31005,109.20703 241.31005,109.51806 C 241.31005,109.854 241.23388,110.13329 241.08056,110.35742 C 240.92822,110.58154 240.70165,110.76465 240.40283,110.90771 C 240.81494,111.02587 241.12256,111.23291 241.32568,111.5288 C 241.5288,111.82469 241.63037,112.18114 241.63037,112.59814 C 241.63037,112.93408 241.56494,113.22509 241.43408,113.47119 C 241.30322,113.7168 241.12646,113.91748 240.90576,114.07324 C 240.68408,114.229 240.43115,114.34424 240.14795,114.41845 C 239.86377,114.49365 239.57275,114.53075 239.27295,114.53075 L 236.03662,114.53075 L 236.03662,107.86669 L 239.17821,107.86669 L 239.17821,107.8667 z M 238.99071,110.56201 C 239.25243,110.56201 239.46727,110.5 239.63622,110.37597 C 239.80419,110.25146 239.88817,110.05029 239.88817,109.77099 C 239.88817,109.61572 239.85985,109.48828 239.80419,109.38915 C 239.74755,109.28954 239.67333,109.21239 239.57958,109.15624 C 239.48583,109.10058 239.37841,109.06151 239.25731,109.04003 C 239.13524,109.01806 239.00926,109.00732 238.8784,109.00732 L 237.50535,109.00732 L 237.50535,110.56201 L 238.99071,110.56201 z M 239.07664,113.39014 C 239.22019,113.39014 239.35691,113.37647 239.48777,113.34815 C 239.61863,113.32032 239.73484,113.27344 239.83445,113.2085 C 239.93406,113.14307 240.01316,113.0542 240.07273,112.94239 C 240.1323,112.83058 240.1616,112.68751 240.1616,112.51319 C 240.1616,112.17139 240.06492,111.92725 239.87156,111.78126 C 239.6782,111.63527 239.42234,111.56202 239.10496,111.56202 L 237.50535,111.56202 L 237.50535,113.39014 L 239.07664,113.39014 z"
   id="path304"
   style="fill:#ffffff" />

		<path
   d="M 241.88914,107.8667 L 243.53269,107.8667 L 245.09324,110.49854 L 246.64402,107.8667 L 248.27781,107.8667 L 245.80418,111.97315 L 245.80418,114.53077 L 244.33543,114.53077 L 244.33543,111.93604 L 241.88914,107.8667 z"
   id="path306"
   style="fill:#ffffff" />

	</g>

	<g
   id="g6316_1_"
   transform="matrix(0.624995,0,0,0.624995,391.2294,176.9332)">
		
			<path
   id="path6318_1_"
   cx="475.97119"
   ry="29.209877"
   cy="252.08646"
   type="arc"
   rx="29.209877"
   d="M -175.0083,-139.1153 C -175.00204,-129.7035 -182.62555,-122.06751 -192.03812,-122.06049 C -201.44913,-122.05341 -209.08512,-129.67774 -209.09293,-139.09028 C -209.09293,-139.09809 -209.09293,-139.10749 -209.09293,-139.1153 C -209.09919,-148.52784 -201.47413,-156.1623 -192.06311,-156.17011 C -182.65054,-156.17713 -175.01456,-148.55207 -175.0083,-139.14026 C -175.0083,-139.13092 -175.0083,-139.1239 -175.0083,-139.1153 z"
   style="fill:#ffffff" />

		<g
   id="g6320_1_"
   transform="translate(-23.9521,-89.72962)">
			<path
   id="path6322_1_"
   d="M -168.2204,-68.05536 C -173.39234,-68.05536 -177.76892,-66.25067 -181.35175,-62.64203 C -185.02836,-58.90759 -186.86588,-54.48883 -186.86588,-49.38568 C -186.86588,-44.28253 -185.02836,-39.89416 -181.35175,-36.22308 C -177.67673,-32.55114 -173.29859,-30.71521 -168.2204,-30.71521 C -163.07974,-30.71521 -158.62503,-32.56677 -154.85312,-36.26996 C -151.30307,-39.78558 -149.52652,-44.15827 -149.52652,-49.38568 C -149.52652,-54.6123 -151.33432,-59.03265 -154.94843,-62.64203 C -158.5625,-66.25067 -162.98599,-68.05536 -168.2204,-68.05536 z M -168.17352,-64.69519 C -163.936,-64.69519 -160.33752,-63.20221 -157.37655,-60.21466 C -154.38748,-57.25836 -152.89214,-53.64899 -152.89214,-49.38568 C -152.89214,-45.09186 -154.35466,-41.52856 -157.28438,-38.69653 C -160.36876,-35.64727 -163.99849,-34.12304 -168.17351,-34.12304 C -172.34856,-34.12304 -175.94701,-35.63244 -178.96892,-38.64965 C -181.9908,-41.66918 -183.50176,-45.24657 -183.50176,-49.38567 C -183.50176,-53.52398 -181.97518,-57.13414 -178.92205,-60.21465 C -175.9939,-63.20221 -172.41107,-64.69519 -168.17352,-64.69519 z" />

			<path
   id="path6324_1_"
   d="M -176.49548,-52.02087 C -175.75171,-56.71856 -172.44387,-59.22949 -168.30008,-59.22949 C -162.33911,-59.22949 -158.70783,-54.90448 -158.70783,-49.1372 C -158.70783,-43.50982 -162.57194,-39.13793 -168.39383,-39.13793 C -172.39856,-39.13793 -175.98297,-41.60277 -176.63611,-46.43877 L -171.93292,-46.43877 C -171.7923,-43.92778 -170.1626,-43.04418 -167.83447,-43.04418 C -165.1813,-43.04418 -163.4563,-45.50908 -163.4563,-49.27709 C -163.4563,-53.22942 -164.94693,-55.32244 -167.74228,-55.32244 C -169.79074,-55.32244 -171.55948,-54.57787 -171.93292,-52.02087 L -170.56418,-52.02789 L -174.26734,-48.32629 L -177.96894,-52.02789 L -176.49548,-52.02087 z" />

		</g>

	</g>

	<g
   id="g313">
		<circle
   cx="242.56226"
   cy="90.224609"
   r="10.8064"
   id="circle315"
   sodipodi:cx="242.56226"
   sodipodi:cy="90.224609"
   sodipodi:rx="10.8064"
   sodipodi:ry="10.8064"
   style="fill:#ffffff" />

		<g
   id="g317">
			<path
   d="M 245.68994,87.09766 C 245.68994,86.68116 245.35205,86.34424 244.93603,86.34424 L 240.16357,86.34424 C 239.74755,86.34424 239.40966,86.68115 239.40966,87.09766 L 239.40966,91.87061 L 240.74071,91.87061 L 240.74071,97.52295 L 244.3579,97.52295 L 244.3579,91.87061 L 245.68993,91.87061 L 245.68993,87.09766 L 245.68994,87.09766 z"
   id="path319" />

			<circle
   cx="242.5498"
   cy="84.083008"
   r="1.63232"
   id="circle321"
   sodipodi:cx="242.5498"
   sodipodi:cy="84.083008"
   sodipodi:rx="1.63232"
   sodipodi:ry="1.63232" />

		</g>

		<path
   clip-rule="evenodd"
   d="M 242.53467,78.31836 C 239.30322,78.31836 236.56641,79.4458 234.32715,81.70215 C 232.0293,84.03516 230.88086,86.79736 230.88086,89.98633 C 230.88086,93.1753 232.0293,95.91846 234.32715,98.21338 C 236.625,100.50781 239.36133,101.65527 242.53467,101.65527 C 245.74756,101.65527 248.53272,100.49853 250.88819,98.18359 C 253.10889,95.98681 254.21827,93.2539 254.21827,89.98632 C 254.21827,86.71874 253.08936,83.95751 250.83057,81.70214 C 248.57178,79.4458 245.80615,78.31836 242.53467,78.31836 z M 242.56396,80.41797 C 245.2124,80.41797 247.46142,81.35156 249.31103,83.21875 C 251.18115,85.06592 252.11572,87.32227 252.11572,89.98633 C 252.11572,92.66992 251.20068,94.89746 249.36963,96.66699 C 247.4419,98.57275 245.17334,99.52539 242.56397,99.52539 C 239.9546,99.52539 237.70557,98.58252 235.81739,96.6958 C 233.92774,94.80957 232.98389,92.57324 232.98389,89.98633 C 232.98389,87.3999 233.93799,85.14404 235.84619,83.21875 C 237.67676,81.35156 239.9165,80.41797 242.56396,80.41797 z"
   id="path323"
   style="fill-rule:evenodd" />

	</g>

</g>
  </g>
</svg>

<svg xmlns="http://www.w3.org/2000/svg" width="120" height="42" version="1.0"><path d="m182.235 75.39 114.064.203c1.594 0 3.018-.237 3.018 3.18l-.14 37.567h-119.82V78.634c0-1.685.163-3.244 2.878-3.244z" style="fill:#aab2ab" transform="matrix(.99378 0 0 .99367 -177.694 -74.436)"/><path d="M187.21-55.68c.005 8.681-7.028 15.722-15.709 15.728-8.68.005-15.722-7.028-15.727-15.708v-.02c-.005-8.68 7.028-15.721 15.708-15.726 8.682-.006 15.722 7.028 15.727 15.708v.019z" style="fill:#fff" transform="matrix(.8675 0 0 .8674 -127.88 67.871)"/><path d="M31.971 8.47c3.024 3.024 4.536 6.726 4.536 11.105 0 4.38-1.486 8.043-4.458 10.988-3.153 3.102-6.88 4.653-11.181 4.653-4.249 0-7.912-1.537-10.987-4.614-3.076-3.076-4.614-6.751-4.614-11.027 0-4.275 1.538-7.976 4.614-11.105 2.997-3.024 6.66-4.535 10.987-4.535 4.38 0 8.08 1.511 11.103 4.535zm-20.054 2.034C9.36 13.086 8.083 16.11 8.083 19.58c0 3.469 1.265 6.467 3.794 8.996 2.53 2.53 5.542 3.794 9.037 3.794 3.495 0 6.532-1.277 9.114-3.833 2.452-2.373 3.678-5.358 3.678-8.957 0-3.572-1.246-6.603-3.737-9.094-2.49-2.49-5.508-3.735-9.055-3.735-3.547 0-6.546 1.251-8.997 3.754zm6.727 7.55c-.391-.852-.976-1.278-1.756-1.278-1.378 0-2.067.928-2.067 2.783 0 1.856.689 2.784 2.067 2.784.91 0 1.561-.452 1.951-1.358l1.911 1.018c-.91 1.618-2.277 2.428-4.1 2.428-1.405 0-2.53-.431-3.376-1.292-.846-.862-1.269-2.05-1.269-3.563 0-1.489.436-2.67 1.308-3.544.872-.875 1.958-1.312 3.26-1.312 1.926 0 3.305.759 4.139 2.275l-2.068 1.058zm8.99 0c-.391-.852-.965-1.278-1.72-1.278-1.406 0-2.11.928-2.11 2.783 0 1.856.704 2.784 2.11 2.784.912 0 1.55-.452 1.915-1.358l1.953 1.018c-.909 1.618-2.274 2.428-4.092 2.428-1.404 0-2.527-.431-3.372-1.292-.843-.862-1.266-2.05-1.266-3.563 0-1.489.43-2.67 1.287-3.544.857-.875 1.947-1.312 3.273-1.312 1.923 0 3.3.759 4.13 2.275l-2.108 1.058z"/><path d="M117.753 0H2.247A2.25 2.25 0 0 0 0 2.247v39.245c0 .28.227.508.507.508h118.985c.28 0 .508-.228.508-.508V2.247A2.25 2.25 0 0 0 117.753 0zM2.247 1.015h115.506c.68 0 1.232.553 1.232 1.232v27.245H36.428c-3.026 5.47-8.856 9.185-15.546 9.185-6.694 0-12.522-3.711-15.547-9.185h-4.32V2.247c0-.68.552-1.232 1.232-1.232z"/><path d="M265.61 112.883c.08.156.187.282.321.379.134.096.29.168.47.214.18.047.367.07.56.07.13 0 .269-.01.418-.032.149-.022.288-.064.42-.126a.906.906 0 0 0 .325-.257.64.64 0 0 0 .13-.416.585.585 0 0 0-.172-.438 1.363 1.363 0 0 0-.453-.28 4.569 4.569 0 0 0-.632-.196 16.958 16.958 0 0 1-.718-.187 6.293 6.293 0 0 1-.728-.229 2.502 2.502 0 0 1-.633-.35 1.648 1.648 0 0 1-.453-.536 1.64 1.64 0 0 1-.172-.78c0-.343.074-.64.22-.891a2 2 0 0 1 .573-.63c.236-.169.503-.293.802-.374.298-.08.597-.121.895-.121.348 0 .682.039 1.003.117.319.077.604.204.852.378.25.175.446.397.593.668.145.271.219.6.219.986h-1.422a1.2 1.2 0 0 0-.125-.495.832.832 0 0 0-.283-.309 1.204 1.204 0 0 0-.405-.158 2.47 2.47 0 0 0-.497-.047 1.73 1.73 0 0 0-.352.037.95.95 0 0 0-.32.131.801.801 0 0 0-.238.234.634.634 0 0 0-.093.355c0 .13.025.236.075.317.05.081.148.156.294.224.145.068.347.137.605.206.258.068.595.155 1.012.26.124.026.296.071.516.137.221.065.44.17.658.312.217.144.405.335.564.574.158.24.237.547.237.92 0 .305-.06.589-.177.85a1.838 1.838 0 0 1-.528.677 2.53 2.53 0 0 1-.867.444 4.103 4.103 0 0 1-1.2.158c-.366 0-.723-.045-1.069-.136a2.692 2.692 0 0 1-.915-.425 2.12 2.12 0 0 1-.63-.74c-.155-.298-.229-.653-.223-1.064h1.422c0 .224.04.414.12.57zM273.867 107.867l2.493 6.664h-1.523l-.504-1.485h-2.493l-.522 1.485h-1.475l2.52-6.664h1.504zm.084 4.086-.84-2.444h-.019l-.869 2.444h1.728zM239.178 107.867c.318 0 .608.028.87.084.261.056.486.148.673.275.187.128.332.297.435.508.102.212.154.473.154.784 0 .336-.076.615-.23.84-.152.224-.378.407-.677.55.412.118.72.325.923.62.203.297.304.653.304 1.07 0 .336-.065.627-.196.873a1.71 1.71 0 0 1-.528.602 2.336 2.336 0 0 1-.758.345 3.402 3.402 0 0 1-.875.113h-3.236v-6.664h3.141zm-.187 2.695c.261 0 .476-.062.645-.186.168-.125.252-.326.252-.605a.775.775 0 0 0-.084-.382.624.624 0 0 0-.224-.233.951.951 0 0 0-.323-.116 2.133 2.133 0 0 0-.379-.033h-1.373v1.555h1.486zm.086 2.828c.143 0 .28-.014.41-.042.132-.028.248-.075.347-.14a.711.711 0 0 0 .239-.266.909.909 0 0 0 .089-.429c0-.342-.097-.586-.29-.732-.194-.146-.45-.219-.767-.219h-1.6v1.828h1.572zM241.89 107.867h1.643l1.56 2.632 1.551-2.632h1.634l-2.474 4.106v2.558h-1.469v-2.595l-2.446-4.07z" style="fill:#fff" transform="matrix(.99378 0 0 .99367 -177.694 -74.436)"/><g><path d="M-175.008-139.115c.006 9.412-7.618 17.047-17.03 17.055-9.411.007-17.047-7.618-17.055-17.03v-.025c-.006-9.413 7.619-17.047 17.03-17.055 9.412-.007 17.048 7.618 17.055 17.03v.025z" style="fill:#fff" transform="matrix(.6211 0 0 .62104 211.102 101.377)"/><path d="M91.742 3.386c-3.212 0-5.93 1.12-8.156 3.362-2.283 2.32-3.425 5.064-3.425 8.233 0 3.169 1.142 5.894 3.425 8.174 2.283 2.28 5.002 3.42 8.156 3.42 3.193 0 5.96-1.15 8.303-3.449 2.205-2.183 3.308-4.899 3.308-8.145 0-3.246-1.123-5.991-3.367-8.233-2.245-2.241-4.993-3.362-8.244-3.362zm.03 2.087c2.631 0 4.866.927 6.705 2.783 1.857 1.836 2.786 4.077 2.786 6.725 0 2.666-.909 4.88-2.728 6.638-1.916 1.894-4.17 2.84-6.764 2.84-2.593 0-4.828-.937-6.705-2.81-1.877-1.876-2.815-4.098-2.815-6.668 0-2.57.948-4.812 2.844-6.725 1.82-1.856 4.044-2.783 6.676-2.783z"/><path d="M86.603 13.344c.462-2.917 2.516-4.477 5.09-4.477 3.702 0 5.958 2.686 5.958 6.268 0 3.495-2.4 6.21-6.016 6.21-2.488 0-4.714-1.53-5.12-4.534h2.921c.088 1.56 1.1 2.108 2.546 2.108 1.648 0 2.72-1.53 2.72-3.87 0-2.455-.927-3.755-2.663-3.755-1.272 0-2.37.462-2.603 2.05l.85-.004-2.3 2.299-2.299-2.3.916.005z"/></g><g transform="matrix(.99378 0 0 .99367 -177.694 -74.436)"><circle cx="242.562" cy="90.225" r="10.806" style="fill:#fff"/><path d="M245.69 87.098a.754.754 0 0 0-.754-.754h-4.772a.754.754 0 0 0-.754.754v4.773h1.33v5.652h3.618V91.87h1.332v-4.773z"/><circle cx="242.55" cy="84.083" r="1.632"/><path clip-rule="evenodd" d="M242.535 78.318c-3.232 0-5.969 1.128-8.208 3.384-2.298 2.333-3.446 5.095-3.446 8.284 0 3.19 1.148 5.932 3.446 8.227s5.034 3.442 8.208 3.442c3.213 0 5.998-1.156 8.353-3.471 2.22-2.197 3.33-4.93 3.33-8.198 0-3.267-1.129-6.028-3.387-8.284-2.26-2.256-5.025-3.384-8.296-3.384zm.029 2.1c2.648 0 4.897.934 6.747 2.8 1.87 1.848 2.805 4.104 2.805 6.768 0 2.684-.915 4.911-2.746 6.681-1.928 1.906-4.197 2.858-6.806 2.858-2.61 0-4.858-.942-6.747-2.83-1.89-1.885-2.833-4.122-2.833-6.709 0-2.586.954-4.842 2.862-6.767 1.83-1.867 4.07-2.801 6.718-2.801z" style="fill-rule:evenodd"/></g></svg>
